X:1
T:Hounslow, 10.10.12.10
T:Hounslow, 10.10.12.10
T:William J. Kirkptick, 1884
T:Public Domain Courtesy of the Cyber Hymnal™
C:William J. Kirkptick, 1884
Z:Public Domain
Z:Courtesy of the Cyber Hymnal™
%%score 1 2
L:1/8
Q:1/4=110
M:3/4
K:G
V:1 treble 
V:2 bass 
V:1
 [DB]2 [DG]2 [B,D]2 | [CE]>[EG] [EG]4 | [DF]2 [DG]2 [DA]2 | [DB]6 | [DB]2 [DG]2 [B,D]2 | %5
 [CE]>[EG] [EG]4 | [DF]2 [DG]2 [DA]2 | [DG]6 | [FA]2 [Fd]2 [FA]2 | [GB]>[Gc] [Gd]4 | %10
 [Fd]2 [FA]2 [Ac]2 | [Ac]>[GB] [GB]4 | [GB]2 [DA]2 [DG]2 | [CE]>[Ec] [Ec]4 | [DB]2 [DG]2 [DA]2 | %15
 [DG]6 |] %16
V:2
 [G,,G,]2 [G,,B,]2 [G,,G,]2 | [C,G,]>[C,C] [C,C]4 | [D,A,]2 [D,B,]2 [D,F,]2 | [G,,G,]6 | %4
 [G,,G,]2 [G,,B,]2 [G,,G,]2 | [C,G,]>[C,C] [C,C]4 | [D,A,]2 [D,B,]2 [D,C]2 | [G,,G,B,]6 | %8
 [D,D]2 [D,A,]2 [D,D]2 | [G,D]>[G,C] [G,B,]4 | [D,A,]2 [D,D]2 [D,D]2 | [G,D]>[G,D] [G,D]4 | %12
 [G,,D]2 [A,,F,]2 [B,,G,]2 | [C,G,]>[C,G,] [C,G,]4 | [D,G,]2 [D,B,]2 [D,C]2 | [G,,G,B,]6 |] %16

